assets/imgs/btn_lock.svg

<svg width="30" height="30" viewBox="0 0 30 30" fill="none" xmlns="http://www.w3.org/2000/svg">
<path d="M14.6599 3C8.73266 3 7.1469 9.09682 6.72511 12.1109C6.5991 13.0114 7.32038 13.7578 8.22963 13.7578C9.23663 13.7578 10.0173 12.8454 10.0293 11.8385C10.0564 9.56881 10.7384 6.0955 14.6599 6.0955C18.5252 6.0955 19.282 9.47016 19.3539 11.7403C19.3874 12.8014 20.213 13.7578 21.2746 13.7578C22.2618 13.7578 23.0346 12.9327 22.8598 11.9611C22.3087 8.89969 20.4905 3 14.6599 3Z" fill="white" stroke="#4B4B4B" stroke-width="2" stroke-linecap="round"/>
<path d="M22.8156 26.8007C17.167 27.1419 13.0445 26.9915 6.92444 26.7506C5.85081 26.7084 5.00013 25.8273 5.00027 24.7528C5.00072 21.1966 5.00146 13.8281 5 12.4696C4.99806 10.6655 24.6726 11.0748 24.6688 12.4696C24.6659 13.5322 24.6674 21.2221 24.6683 24.8235C24.6686 25.8704 23.8606 26.7376 22.8156 26.8007Z" fill="white" stroke="#4B4B4B" stroke-width="2" stroke-linecap="round"/>
<ellipse cx="15.2278" cy="18.4789" rx="2.36026" ry="2.36026" fill="#4B4B4B"/>
<path d="M15.2279 19.2651V23.0415" stroke="#4B4B4B" stroke-width="2" stroke-linecap="round"/>
</svg>

<svg width="30" height="30" fill="none" xmlns="http://www.w3.org/2000/svg"><path d="M14.66 3c-5.927 0-7.513 6.097-7.935 9.11-.126.901.595 1.648 1.505 1.648 1.007 0 1.787-.913 1.8-1.92.026-2.27.708-5.742 4.63-5.742 3.865 0 4.622 3.374 4.694 5.644.033 1.061.859 2.018 1.92 2.018.988 0 1.76-.825 1.586-1.797C22.309 8.9 20.49 3 14.66 3z" fill="#fff" stroke="#4B4B4B" stroke-width="2" stroke-linecap="round"/><path d="M22.816 26.8c-5.649.342-9.771.191-15.892-.05A2.001 2.001 0 0 1 5 24.754V12.47c-.002-1.805 19.673-1.395 19.669 0-.003 1.062-.002 8.752 0 12.353a1.974 1.974 0 0 1-1.853 1.978z" fill="#fff" stroke="#4B4B4B" stroke-width="2" stroke-linecap="round"/><circle cx="15.228" cy="18.479" fill="#4B4B4B" r="2.36"/><path d="M15.228 19.265v3.776" stroke="#4B4B4B" stroke-width="2" stroke-linecap="round"/></svg>
